static/img/logos/bigpicture.svg

<svg xmlns="http://www.w3.org/2000/svg" width="220" height="102" viewBox="0 0 220 102"><g fill="none" fill-rule="evenodd"><path fill="#FF447C" fill-rule="nonzero" d="M90 79.1c0-3.7-.6-7.1-1.9-10.2s-3.2-5.7-5.8-8a27 27 0 0 0-9.6-5.1A44 44 0 0 0 59.5 54H20c-4.1 0-7.4.5-10 1.6-2.6 1-4.6 2.4-6.1 4s-2.5 3.5-3 5.6c-.6 2.1-.9 4.1-.9 6.3A22 22 0 0 0 4.5 85c7.8 10.7 18 17 37.2 17h18.4c10 0 17.4-1.9 22.4-5.8Q90 90.5 90 79.1"/><path stroke="#FFF" stroke-width="2" d="M90 78 44 66M30 88l16.8-19.8L68 54"/><path fill="#1C007B" fill-rule="nonzero" stroke="#FFF" stroke-width="2" d="M51.9 68a7 7 0 0 1-5.9 7.9 7 7 0 0 1-7.9-5.9 7 7 0 0 1 5.9-7.9c3.8-.6 7.4 2.1 7.9 5.9Z"/><path stroke="#FFF" stroke-width="2" d="m68 54 23 24"/><path fill="#1C007B" fill-rule="nonzero" stroke="#FFF" stroke-width="2" d="M96.9 76.1c.5 3.3-1.8 6.3-5.1 6.8s-6.3-1.8-6.8-5.1 1.8-6.3 5.1-6.8c3.3-.4 6.4 1.9 6.8 5.1Z"/><path fill="#2B2A69" fill-rule="nonzero" stroke="#FFF" stroke-width="2" d="M71.9 52.9c.4 2.5-1.3 4.8-3.8 5.1-2.5.4-4.8-1.3-5.1-3.8-.4-2.5 1.3-4.8 3.8-5.1 2.5-.4 4.8 1.3 5.1 3.8Z"/><path stroke="#FFF" stroke-width="2" d="m15 73 15 15"/><path fill="#1C007B" fill-rule="nonzero" stroke="#FFF" stroke-width="2" d="M20.9 72.1c.5 3.3-1.8 6.3-5.1 6.8S9.5 77.1 9 73.8s1.8-6.3 5.1-6.8a6 6 0 0 1 6.8 5.1Zm14 15.2c.4 2.7-1.7 5.3-4.7 5.7s-5.8-1.5-6.2-4.2 1.7-5.3 4.7-5.7 5.8 1.5 6.2 4.2Z"/><path fill="#1C007B" fill-rule="nonzero" d="M16 34.6V0h7.2v13.2a9.8 9.8 0 0 1 7.1-2.9c1.3 0 2.4.3 3.5.8s2 1.3 2.8 2.4 1.4 2.3 1.8 3.8.7 3.2.7 5.2c0 1.8-.2 3.5-.7 5s-1.2 2.8-2.1 4c-.9 1.1-2 2-3.2 2.6q-1.95.9-4.2.9c-.7 0-1.3-.1-1.9-.2s-1.1-.4-1.5-.6c-.5-.2-.9-.6-1.3-.9q-.6-.45-1.2-1.2l-.2 1.2c-.1.5-.3.8-.6 1s-.7.3-1.1.3zm11.7-18.9c-.5 0-1 0-1.4.1s-.8.2-1.2.4-.7.4-1 .7-.6.6-.9 1v10.2c.5.6 1.1 1 1.8 1.3.6.2 1.3.4 2 .4s1.3-.1 1.8-.4 1.1-.7 1.4-1.3c.4-.6.7-1.3.9-2.2a16 16 0 0 0 .1-6.6c-.2-.9-.5-1.6-.8-2.1q-.45-.75-1.2-1.2-.6-.3-1.5-.3M52 4.2c0 .6-.1 1.1-.4 1.6s-.6 1-1 1.3-.9.7-1.5.9c-.5.2-1.1.4-1.8.4-.6 0-1.2-.1-1.7-.4a4.2 4.2 0 0 1-2.3-2.2c-.2-.4-.3-1-.3-1.6s.1-1.1.4-1.7c.2-.5.5-1 .9-1.3A4.2 4.2 0 0 1 47.4 0q.9 0 1.8.3.75.3 1.5.9c.4.4.7.8 1 1.3s.3 1.1.3 1.7m-.9 6.6V35h-7.4V10.8zm13.5-.8c1 0 1.9.1 2.8.3s1.7.5 2.5.8H77v2.7c0 .4-.1.7-.3 1-.2.2-.6.4-1.1.5l-1.7.4c.2.7.3 1.4.3 2.2 0 1.2-.2 2.3-.7 3.3s-1.2 1.8-2 2.5a10.8 10.8 0 0 1-6.7 2.2c-.8 0-1.4 0-2.1-.1-.5.3-.8.7-.8 1.1q0 .6.6.9c.4.2 1 .3 1.6.4.7.1 1.4.1 2.3.1a25 25 0 0 1 5.4.5c.9.2 1.6.5 2.3 1s1.2 1.1 1.6 1.8.6 1.7.6 2.9c0 1.1-.2 2.2-.8 3.2s-1.3 2-2.3 2.8-2.2 1.5-3.7 1.9c-1.4.5-3.1.7-5 .7s-3.4-.2-4.8-.5c-1.3-.4-2.4-.8-3.3-1.4s-1.5-1.3-2-2q-.6-1.2-.6-2.4c0-1.1.3-2 1-2.7.6-.7 1.5-1.3 2.6-1.7-.5-.4-1-.8-1.3-1.4s-.5-1.3-.5-2.1c0-.4.1-.7.2-1.1s.3-.8.5-1.2.6-.7 1-1.1.9-.6 1.4-.9c-1.2-.7-2.2-1.6-2.9-2.7s-1.1-2.4-1.1-3.9c0-1.2.2-2.3.8-3.3.5-1 1.2-1.8 2.1-2.5s1.9-1.2 3.1-1.6q1.95-.6 3.9-.6m5.2 25.5c0-.4-.1-.7-.3-1s-.5-.4-1-.6c-.4-.1-.9-.2-1.4-.3s-1.1-.1-1.7-.1h-1.9c-.7 0-1.3-.1-2-.2-.4.3-.8.7-1.1 1-.3.4-.4.8-.4 1.3 0 .4.1.7.2.9.1.3.4.5.8.7s.9.4 1.5.5a14 14 0 0 0 4.8 0c.7-.1 1.2-.3 1.5-.5s.7-.5.8-.8c.1-.2.2-.6.2-.9m-5.2-14.3c1.2 0 2-.3 2.5-.9.6-.5.9-1.3.9-2.3s-.3-1.8-.8-2.3-1.4-.8-2.5-.8c-1.2 0-2 .3-2.5.8-.5.6-.8 1.3-.8 2.3 0 .5.1.9.2 1.3s.3.7.6 1 .6.5 1 .7.8.2 1.4.2M81 43V10.4h1.3c.2 0 .4 0 .5.1s.2.2.2.5l.2 3.7c1.1-1.4 2.3-2.6 3.7-3.5 1.4-.8 3-1.3 4.8-1.3 2.9 0 5.2 1 6.9 3.1s2.5 5.1 2.5 9.2c0 1.8-.2 3.4-.7 4.9s-1.1 2.9-2 4-2 2-3.3 2.6-2.8 1-4.5 1c-1.6 0-3.1-.3-4.2-.9-1.2-.6-2.2-1.5-3.1-2.6V43zm10-31.1c-1.6 0-3 .4-4.3 1.2s-2.4 2-3.4 3.5v12.6a7 7 0 0 0 3.1 2.9c1.1.6 2.4.8 3.8.8s2.6-.2 3.7-.8c1.1-.5 1.9-1.2 2.7-2.2.7-1 1.3-2.1 1.6-3.4.4-1.3.5-2.8.5-4.3 0-3.6-.7-6.2-2-7.9q-1.95-2.4-5.7-2.4m20-8.7c0 .3-.1.6-.2.8s-.3.5-.4.7c-.2.2-.4.3-.6.5-.2.1-.5.2-.8.2s-.5-.1-.8-.2c-.2-.1-.5-.3-.6-.5-.2-.2-.3-.4-.4-.7-.1-.2-.2-.5-.2-.8s.1-.6.2-.8c.1-.3.3-.5.4-.7.2-.2.4-.3.6-.5.2-.1.5-.2.8-.2s.5.1.8.2c.2.1.5.3.6.5.2.2.3.4.4.7.2.2.2.5.2.8m-.9 8.1V35h-2.2V11.3zm24.9 3.1c-.1.1-.1.1-.3.2-.1.1-.2.1-.3.1-.2 0-.4-.1-.7-.3s-.7-.4-1.2-.7c-.5-.2-1.1-.5-1.8-.7s-1.6-.3-2.6-.3c-1.4 0-2.7.2-3.8.7s-2 1.2-2.8 2.1-1.3 2-1.7 3.3-.6 2.7-.6 4.3.2 3.1.6 4.3 1 2.3 1.7 3.2c.8.9 1.6 1.5 2.7 2 1 .4 2.2.7 3.5.7 1.2 0 2.2-.1 3-.4s1.4-.5 2-.9q.75-.45 1.2-.9c.3-.3.5-.4.7-.4s.4.1.5.2l.7.8c-.4.5-.9.9-1.4 1.3-.6.4-1.2.8-2 1.1-.7.3-1.5.5-2.3.7-.9.2-1.7.2-2.7.2-1.6 0-3-.3-4.3-.8s-2.4-1.3-3.3-2.3-1.7-2.3-2.2-3.8a16 16 0 0 1 0-10 10.3 10.3 0 0 1 5.7-6.3c1.4-.6 3-.9 4.7-.9 1.6 0 3 .2 4.3.7 1.2.5 2.3 1.1 3.3 2zM146.9 35c-1.6 0-2.8-.5-3.7-1.3-.9-.9-1.3-2.3-1.3-4.2V12.9h-3.4c-.2 0-.3 0-.4-.1s-.2-.2-.2-.4v-.9l4-.3.5-8.6c0-.1.1-.3.2-.4s.2-.2.4-.2h1v9.2h7.3v1.7H144v16.4c0 .7.1 1.2.2 1.7.2.5.4.9.7 1.2s.6.5 1 .7c.4.1.8.2 1.3.2s1.1-.1 1.4-.2c.4-.2.8-.4 1.1-.6s.5-.4.7-.6.3-.2.4-.2.2.1.4.2l.6 1c-.6.7-1.3 1.2-2.3 1.6-.6.5-1.6.7-2.6.7m11.4-24v15.1c0 2.2.5 3.9 1.6 5.2s2.6 1.9 4.8 1.9c1.6 0 3-.4 4.4-1.2 1.3-.8 2.6-1.9 3.7-3.3V11h2.3v23.6h-1.3c-.5 0-.7-.2-.7-.6l-.2-3.5c-1.1 1.3-2.4 2.5-3.9 3.3s-3.1 1.2-5 1.2c-1.3 0-2.5-.2-3.5-.6s-1.8-1-2.5-1.8a7 7 0 0 1-1.5-2.8c-.4-1.1-.5-2.3-.5-3.7V11zM183 34V10.4h1.2c.3 0 .5.1.6.2s.2.3.2.6l.2 5c.8-1.9 1.8-3.4 3.2-4.5 1.3-1.1 2.9-1.6 4.8-1.6.8 0 1.4.1 2 .2s1.2.4 1.8.7l-.3 1.6c0 .2-.2.4-.5.4-.1 0-.3 0-.4-.1-.2-.1-.4-.1-.7-.2s-.6-.1-1-.2-.9-.1-1.4-.1c-1.9 0-3.4.6-4.5 1.7-1.2 1.1-2.1 2.7-2.9 4.8V34zm27.6-24c1.3 0 2.6.2 3.7.7 1.2.5 2.1 1.2 3 2.1.8.9 1.5 2 2 3.3s.7 2.8.7 4.5c0 .4 0 .6-.1.7s-.3.2-.5.2h-17.2v.5q0 2.7.6 4.8c.4 1.4 1 2.5 1.8 3.5.8.9 1.7 1.6 2.8 2.1s2.3.7 3.6.7c1.2 0 2.2-.1 3.1-.4s1.6-.6 2.2-.9 1.1-.6 1.4-.9.6-.4.8-.4.3.1.5.2l.6.8c-.4.5-.9.9-1.5 1.4-.6.4-1.3.8-2.1 1.1s-1.6.5-2.5.7q-1.35.3-2.7.3a10.5 10.5 0 0 1-7.9-3.4c-.9-1.1-1.7-2.5-2.2-4.1s-.8-3.4-.8-5.5c0-1.7.2-3.3.7-4.8s1.2-2.7 2.1-3.8 2-1.9 3.4-2.5q2.1-.9 4.5-.9m.1 1.7q-1.8 0-3.3.6a7.8 7.8 0 0 0-4.2 4.3c-.5 1-.7 2.2-.9 3.5H218c0-1.3-.2-2.5-.5-3.5s-.8-1.9-1.5-2.6c-.6-.7-1.4-1.3-2.3-1.6-.9-.5-1.9-.7-3-.7"/></g></svg>

<svg xmlns="http://www.w3.org/2000/svg" width="220" height="102" viewBox="0 0 220 102"><g fill="none" fill-rule="evenodd"><path fill="#FF447C" fill-rule="nonzero" d="M90,79.1 C90,75.4 89.4,72 88.1,68.9 C86.8,65.8 84.9,63.2 82.3,60.9 C79.7,58.7 76.6,57 72.7,55.8 C68.9,54.6 64.5,54 59.5,54 L41.8,54 L20,54 C15.9,54 12.6,54.5 10,55.6 C7.4,56.6 5.4,58 3.9,59.6 C2.4,61.2 1.4,63.1 0.9,65.2 C0.3,67.3 0,69.3 0,71.5 C0,73.4 0.2,75.2 0.6,76.8 C1.1,79.1 2.2,81.9 4.5,85 C12.3,95.7 22.5,102 41.7,102 L60.1,102 C70.1,102 77.5,100.1 82.5,96.2 C87.5,92.4 90,86.7 90,79.1"/><line x1="90" x2="44" y1="78" y2="66" stroke="#FFF" stroke-width="2"/><polyline stroke="#FFF" stroke-width="2" points="30 88 46.8 68.2 68 54"/><path fill="#1C007B" fill-rule="nonzero" stroke="#FFF" stroke-width="2" d="M51.9,68 C52.4,71.8 49.8,75.4 46,75.9 C42.2,76.4 38.6,73.8 38.1,70 C37.6,66.2 40.2,62.6 44,62.1 C47.8,61.5 51.4,64.2 51.9,68 Z"/><line x1="68" x2="91" y1="54" y2="78" stroke="#FFF" stroke-width="2"/><path fill="#1C007B" fill-rule="nonzero" stroke="#FFF" stroke-width="2" d="M96.9,76.1 C97.4,79.4 95.1,82.4 91.8,82.9 C88.5,83.4 85.5,81.1 85,77.8 C84.5,74.5 86.8,71.5 90.1,71 C93.4,70.6 96.5,72.9 96.9,76.1 Z"/><path fill="#2B2A69" fill-rule="nonzero" stroke="#FFF" stroke-width="2" d="M71.9,52.9 C72.3,55.4 70.6,57.7 68.1,58 C65.6,58.4 63.3,56.7 63,54.2 C62.6,51.7 64.3,49.4 66.8,49.1 C69.3,48.7 71.6,50.4 71.9,52.9 Z"/><line x1="15" x2="30" y1="73" y2="88" stroke="#FFF" stroke-width="2"/><path fill="#1C007B" fill-rule="nonzero" stroke="#FFF" stroke-width="2" d="M20.9 72.1C21.4 75.4 19.1 78.4 15.8 78.9 12.5 79.4 9.5 77.1 9 73.8 8.5 70.5 10.8 67.5 14.1 67 17.4 66.6 20.5 68.8 20.9 72.1ZM34.9 87.3C35.3 90 33.2 92.6 30.2 93 27.2 93.4 24.4 91.5 24 88.8 23.6 86.1 25.7 83.5 28.7 83.1 31.7 82.7 34.5 84.6 34.9 87.3Z"/><path fill="#1C007B" fill-rule="nonzero" d="M16 34.6 16 0 23.2 0 23.2 13.2C24.1 12.3 25.1 11.6 26.3 11.1 27.4 10.6 28.8 10.3 30.3 10.3 31.6 10.3 32.7 10.6 33.8 11.1 34.9 11.6 35.8 12.4 36.6 13.5 37.4 14.6 38 15.8 38.4 17.3 38.8 18.8 39.1 20.5 39.1 22.5 39.1 24.3 38.9 26 38.4 27.5 37.9 29 37.2 30.3 36.3 31.5 35.4 32.6 34.3 33.5 33.1 34.1 31.8 34.7 30.4 35 28.9 35 28.2 35 27.6 34.9 27 34.8 26.4 34.7 25.9 34.4 25.5 34.2 25 34 24.6 33.6 24.2 33.3 23.8 33 23.4 32.6 23 32.1L22.8 33.3C22.7 33.8 22.5 34.1 22.2 34.3 21.9 34.5 21.5 34.6 21.1 34.6L16 34.6 16 34.6ZM27.7 15.7C27.2 15.7 26.7 15.7 26.3 15.8 25.9 15.9 25.5 16 25.1 16.2 24.7 16.4 24.4 16.6 24.1 16.9 23.8 17.2 23.5 17.5 23.2 17.9L23.2 28.1C23.7 28.7 24.3 29.1 25 29.4 25.6 29.6 26.3 29.8 27 29.8 27.7 29.8 28.3 29.7 28.8 29.4 29.3 29.1 29.9 28.7 30.2 28.1 30.6 27.5 30.9 26.8 31.1 25.9 31.3 25 31.5 23.8 31.5 22.5 31.5 21.2 31.4 20.2 31.2 19.3 31 18.4 30.7 17.7 30.4 17.2 30.1 16.7 29.7 16.3 29.2 16 28.8 15.8 28.3 15.7 27.7 15.7ZM52 4.2C52 4.8 51.9 5.3 51.6 5.8 51.3 6.3 51 6.8 50.6 7.1 50.2 7.4 49.7 7.8 49.1 8 48.6 8.2 48 8.4 47.3 8.4 46.7 8.4 46.1 8.3 45.6 8 45.1 7.8 44.6 7.5 44.2 7.1 43.8 6.7 43.5 6.3 43.3 5.8 43.1 5.4 43 4.8 43 4.2 43 3.6 43.1 3.1 43.4 2.5 43.6 2 43.9 1.5 44.3 1.2 44.7.8 45.2.5 45.7.3 46.3.1 46.8 0 47.4 0 48 0 48.6.1 49.2.3 49.7.5 50.2.8 50.7 1.2 51.1 1.6 51.4 2 51.7 2.5 52 3 52 3.6 52 4.2ZM51.1 10.8 51.1 35 43.7 35 43.7 10.8 51.1 10.8ZM64.6 10C65.6 10 66.5 10.1 67.4 10.3 68.3 10.5 69.1 10.8 69.9 11.1L77 11.1 77 13.8C77 14.2 76.9 14.5 76.7 14.8 76.5 15 76.1 15.2 75.6 15.3L73.9 15.7C74.1 16.4 74.2 17.1 74.2 17.9 74.2 19.1 74 20.2 73.5 21.2 73 22.2 72.3 23 71.5 23.7 70.6 24.4 69.6 24.9 68.5 25.3 67.3 25.7 66.1 25.9 64.8 25.9 64 25.9 63.4 25.9 62.7 25.8 62.2 26.1 61.9 26.5 61.9 26.9 61.9 27.3 62.1 27.6 62.5 27.8 62.9 28 63.5 28.1 64.1 28.2 64.8 28.3 65.5 28.3 66.4 28.3 67.3 28.3 68.1 28.3 69.1 28.4 70 28.5 70.9 28.6 71.8 28.8 72.7 29 73.4 29.3 74.1 29.8 74.8 30.3 75.3 30.9 75.7 31.6 76.1 32.3 76.3 33.3 76.3 34.5 76.3 35.6 76.1 36.7 75.5 37.7 74.9 38.7 74.2 39.7 73.2 40.5 72.2 41.3 71 42 69.5 42.4 68.1 42.9 66.4 43.1 64.5 43.1 62.6 43.1 61.1 42.9 59.7 42.6 58.4 42.2 57.3 41.8 56.4 41.2 55.5 40.6 54.9 39.9 54.4 39.2 54 38.4 53.8 37.6 53.8 36.8 53.8 35.7 54.1 34.8 54.8 34.1 55.4 33.4 56.3 32.8 57.4 32.4 56.9 32 56.4 31.6 56.1 31 55.8 30.4 55.6 29.7 55.6 28.9 55.6 28.5 55.7 28.2 55.8 27.8 55.9 27.4 56.1 27 56.3 26.6 56.5 26.2 56.9 25.9 57.3 25.5 57.7 25.1 58.2 24.9 58.7 24.6 57.5 23.9 56.5 23 55.8 21.9 55.1 20.8 54.7 19.5 54.7 18 54.7 16.8 54.9 15.7 55.5 14.7 56 13.7 56.7 12.9 57.6 12.2 58.5 11.5 59.5 11 60.7 10.6 62 10.2 63.3 10 64.6 10ZM69.8 35.5C69.8 35.1 69.7 34.8 69.5 34.5 69.3 34.2 69 34.1 68.5 33.9 68.1 33.8 67.6 33.7 67.1 33.6 66.6 33.5 66 33.5 65.4 33.5 64.8 33.5 64.1 33.5 63.5 33.5 62.8 33.5 62.2 33.4 61.5 33.3 61.1 33.6 60.7 34 60.4 34.3 60.1 34.7 60 35.1 60 35.6 60 36 60.1 36.3 60.2 36.5 60.3 36.8 60.6 37 61 37.2 61.4 37.4 61.9 37.6 62.5 37.7 63.1 37.8 63.9 37.9 64.8 37.9 65.8 37.9 66.7 37.8 67.3 37.7 68 37.6 68.5 37.4 68.8 37.2 69.1 37 69.5 36.7 69.6 36.4 69.7 36.2 69.8 35.8 69.8 35.5ZM64.6 21.2C65.8 21.2 66.6 20.9 67.1 20.3 67.7 19.8 68 19 68 18 68 17 67.7 16.2 67.2 15.7 66.7 15.2 65.8 14.9 64.7 14.9 63.5 14.9 62.7 15.2 62.2 15.7 61.7 16.3 61.4 17 61.4 18 61.4 18.5 61.5 18.9 61.6 19.3 61.7 19.7 61.9 20 62.2 20.3 62.5 20.6 62.8 20.8 63.2 21 63.6 21.2 64 21.2 64.6 21.2ZM81 43 81 10.4 82.3 10.4C82.5 10.4 82.7 10.4 82.8 10.5 82.9 10.6 83 10.7 83 11L83.2 14.7C84.3 13.3 85.5 12.1 86.9 11.2 88.3 10.4 89.9 9.9 91.7 9.9 94.6 9.9 96.9 10.9 98.6 13 100.3 15.1 101.1 18.1 101.1 22.2 101.1 24 100.9 25.6 100.4 27.1 99.9 28.6 99.3 30 98.4 31.1 97.5 32.2 96.4 33.1 95.1 33.7 93.8 34.3 92.3 34.7 90.6 34.7 89 34.7 87.5 34.4 86.4 33.8 85.2 33.2 84.2 32.3 83.3 31.2L83.3 43 81 43 81 43ZM91 11.9C89.4 11.9 88 12.3 86.7 13.1 85.4 13.9 84.3 15.1 83.3 16.6L83.3 29.2C84.2 30.6 85.2 31.6 86.4 32.1 87.5 32.7 88.8 32.9 90.2 32.9 91.6 32.9 92.8 32.7 93.9 32.1 95 31.6 95.8 30.9 96.6 29.9 97.3 28.9 97.9 27.8 98.2 26.5 98.6 25.2 98.7 23.7 98.7 22.2 98.7 18.6 98 16 96.7 14.3 95.4 12.7 93.5 11.9 91 11.9ZM111 3.2C111 3.5 110.9 3.8 110.8 4 110.7 4.2 110.5 4.5 110.4 4.7 110.2 4.9 110 5 109.8 5.2 109.6 5.3 109.3 5.4 109 5.4 108.7 5.4 108.5 5.3 108.2 5.2 108 5.1 107.7 4.9 107.6 4.7 107.4 4.5 107.3 4.3 107.2 4 107.1 3.8 107 3.5 107 3.2 107 2.9 107.1 2.6 107.2 2.4 107.3 2.1 107.5 1.9 107.6 1.7 107.8 1.5 108 1.4 108.2 1.2 108.4 1.1 108.7 1 109 1 109.3 1 109.5 1.1 109.8 1.2 110 1.3 110.3 1.5 110.4 1.7 110.6 1.9 110.7 2.1 110.8 2.4 111 2.6 111 2.9 111 3.2ZM110.1 11.3 110.1 35 107.9 35 107.9 11.3 110.1 11.3ZM135 14.4C134.9 14.5 134.9 14.5 134.7 14.6 134.6 14.7 134.5 14.7 134.4 14.7 134.2 14.7 134 14.6 133.7 14.4 133.4 14.2 133 14 132.5 13.7 132 13.5 131.4 13.2 130.7 13 130 12.8 129.1 12.7 128.1 12.7 126.7 12.7 125.4 12.9 124.3 13.4 123.2 13.9 122.3 14.6 121.5 15.5 120.7 16.4 120.2 17.5 119.8 18.8 119.4 20.1 119.2 21.5 119.2 23.1 119.2 24.7 119.4 26.2 119.8 27.4 120.2 28.6 120.8 29.7 121.5 30.6 122.3 31.5 123.1 32.1 124.2 32.6 125.2 33 126.4 33.3 127.7 33.3 128.9 33.3 129.9 33.2 130.7 32.9 131.5 32.6 132.1 32.4 132.7 32 133.2 31.7 133.6 31.4 133.9 31.1 134.2 30.8 134.4 30.7 134.6 30.7 134.8 30.7 135 30.8 135.1 30.9L135.8 31.7C135.4 32.2 134.9 32.6 134.4 33 133.8 33.4 133.2 33.8 132.4 34.1 131.7 34.4 130.9 34.6 130.1 34.8 129.2 35 128.4 35 127.4 35 125.8 35 124.4 34.7 123.1 34.2 121.8 33.7 120.7 32.9 119.8 31.9 118.9 30.9 118.1 29.6 117.6 28.1 117.1 26.6 116.8 24.9 116.8 23 116.8 21.2 117.1 19.6 117.6 18.1 118.1 16.6 118.8 15.4 119.8 14.3 120.8 13.2 121.9 12.4 123.3 11.8 124.7 11.2 126.3 10.9 128 10.9 129.6 10.9 131 11.1 132.3 11.6 133.5 12.1 134.6 12.7 135.6 13.6L135 14.4ZM146.9 35C145.3 35 144.1 34.5 143.2 33.7 142.3 32.8 141.9 31.4 141.9 29.5L141.9 12.9 138.5 12.9C138.3 12.9 138.2 12.9 138.1 12.8 138 12.7 137.9 12.6 137.9 12.4L137.9 11.5 141.9 11.2 142.4 2.6C142.4 2.5 142.5 2.3 142.6 2.2 142.7 2.1 142.8 2 143 2L144 2 144 11.2 151.3 11.2 151.3 12.9 144 12.9 144 29.3C144 30 144.1 30.5 144.2 31 144.4 31.5 144.6 31.9 144.9 32.2 145.2 32.5 145.5 32.7 145.9 32.9 146.3 33 146.7 33.1 147.2 33.1 147.7 33.1 148.3 33 148.6 32.9 149 32.7 149.4 32.5 149.7 32.3 150 32.1 150.2 31.9 150.4 31.7 150.6 31.5 150.7 31.5 150.8 31.5 150.9 31.5 151 31.6 151.2 31.7L151.8 32.7C151.2 33.4 150.5 33.9 149.5 34.3 148.9 34.8 147.9 35 146.9 35ZM158.3 11 158.3 26.1C158.3 28.3 158.8 30 159.9 31.3 161 32.6 162.5 33.2 164.7 33.2 166.3 33.2 167.7 32.8 169.1 32 170.4 31.2 171.7 30.1 172.8 28.7L172.8 11 175.1 11 175.1 34.6 173.8 34.6C173.3 34.6 173.1 34.4 173.1 34L172.9 30.5C171.8 31.8 170.5 33 169 33.8 167.5 34.6 165.9 35 164 35 162.7 35 161.5 34.8 160.5 34.4 159.5 34 158.7 33.4 158 32.6 157.3 31.8 156.8 30.9 156.5 29.8 156.1 28.7 156 27.5 156 26.1L156 11 158.3 11ZM183 34 183 10.4 184.2 10.4C184.5 10.4 184.7 10.5 184.8 10.6 184.9 10.7 185 10.9 185 11.2L185.2 16.2C186 14.3 187 12.8 188.4 11.7 189.7 10.6 191.3 10.1 193.2 10.1 194 10.1 194.6 10.2 195.2 10.3 195.8 10.4 196.4 10.7 197 11L196.7 12.6C196.7 12.8 196.5 13 196.2 13 196.1 13 195.9 13 195.8 12.9 195.6 12.8 195.4 12.8 195.1 12.7 194.8 12.6 194.5 12.6 194.1 12.5 193.7 12.4 193.2 12.4 192.7 12.4 190.8 12.4 189.3 13 188.2 14.1 187 15.2 186.1 16.8 185.3 18.9L185.3 34 183 34ZM210.6 10C211.9 10 213.2 10.2 214.3 10.7 215.5 11.2 216.4 11.9 217.3 12.8 218.1 13.7 218.8 14.8 219.3 16.1 219.8 17.4 220 18.9 220 20.6 220 21 220 21.2 219.9 21.3 219.8 21.4 219.6 21.5 219.4 21.5L202.2 21.5 202.2 22C202.2 23.8 202.4 25.4 202.8 26.8 203.2 28.2 203.8 29.3 204.6 30.3 205.4 31.2 206.3 31.9 207.4 32.4 208.5 32.9 209.7 33.1 211 33.1 212.2 33.1 213.2 33 214.1 32.7 215 32.4 215.7 32.1 216.3 31.8 216.9 31.5 217.4 31.2 217.7 30.9 218 30.6 218.3 30.5 218.5 30.5 218.7 30.5 218.8 30.6 219 30.7L219.6 31.5C219.2 32 218.7 32.4 218.1 32.9 217.5 33.3 216.8 33.7 216 34 215.2 34.3 214.4 34.5 213.5 34.7 212.6 34.9 211.7 35 210.8 35 209.2 35 207.7 34.7 206.4 34.1 205.1 33.5 203.9 32.7 202.9 31.6 202 30.5 201.2 29.1 200.7 27.5 200.2 25.9 199.9 24.1 199.9 22 199.9 20.3 200.1 18.7 200.6 17.2 201.1 15.7 201.8 14.5 202.7 13.4 203.6 12.3 204.7 11.5 206.1 10.9 207.5 10.3 209 10 210.6 10ZM210.7 11.7C209.5 11.7 208.4 11.9 207.4 12.3 206.4 12.7 205.6 13.3 204.9 14 204.2 14.7 203.6 15.6 203.2 16.6 202.7 17.6 202.5 18.8 202.3 20.1L218 20.1C218 18.8 217.8 17.6 217.5 16.6 217.2 15.6 216.7 14.7 216 14 215.4 13.3 214.6 12.7 213.7 12.4 212.8 11.9 211.8 11.7 210.7 11.7Z"/></g></svg>
